packages/bezier-icons/icons/checkbox-filled.svg

<svg width="24" height="24" viewBox="0 0 24 24" fill="none" xmlns="http://www.w3.org/2000/svg">
<path fill-rule="evenodd" clip-rule="evenodd" d="M8 3C5.23858 3 3 5.23858 3 8V16C3 18.7614 5.23858 21 8 21H16C18.7614 21 21 18.7614 21 16V8C21 5.23858 18.7614 3 16 3H8ZM15.3806 8.66155L10.6666 13.3756L8.61922 11.3282C8.22869 10.9377 7.59553 10.9377 7.205 11.3282C6.81448 11.7187 6.81448 12.3519 7.205 12.7424L10.3578 15.8952C10.5283 16.0658 10.8048 16.0658 10.9754 15.8952L16.7949 10.0758C17.1854 9.68524 17.1854 9.05207 16.7949 8.66155C16.4043 8.27102 15.7712 8.27102 15.3806 8.66155Z" fill="#313234"/>
</svg>

<svg xmlns="http://www.w3.org/2000/svg" width="24" height="24" fill="none" viewBox="0 0 24 24"><path fill="#313234" fill-rule="evenodd" d="M8 3a5 5 0 0 0-5 5v8a5 5 0 0 0 5 5h8a5 5 0 0 0 5-5V8a5 5 0 0 0-5-5zm7.38 5.662-4.713 4.714-2.048-2.048a1 1 0 0 0-1.414 1.414l3.153 3.153c.17.17.447.17.617 0l5.82-5.82a1 1 0 0 0-1.414-1.413" clip-rule="evenodd"/></svg>
